<?xml version="1.0" encoding="UTF-8"?>
<map version="1.10" tiledversion="1.10.2" orientation="orthogonal" renderorder="right-down" width="40" height="30" tilewidth="16" tileheight="16" infinite="0" backgroundcolor="#030409" nextlayerid="11" nextobjectid="112">
 <tileset firstgid="1" source="../tileset/abandoned_village.tsx"/>
 <layer id="1" name="Ground" width="40" height="30">
  <data encoding="csv">
67,104,1,9,1,5,9,9,9,1,9,1,1,5,5,5,1,9,9,5,5,9,9,5,9,1,5,9,5,1,5,9,1,5,9,9,1,9,34,67,
67,104,9,1,5,9,1,9,5,5,5,1,9,1,9,5,9,9,5,5,9,5,9,1,5,5,9,1,1,1,5,5,5,1,1,5,9,9,42,67,
67,108,5,9,1,1,9,5,5,9,9,1,1,5,1,9,5,5,5,9,9,5,5,5,5,1,5,9,5,1,5,9,9,5,5,9,5,5,38,67,
67,100,5,9,5,5,5,5,1,5,5,1,5,9,9,9,1,9,9,5,5,5,5,1,1,1,1,1,5,5,9,1,1,5,9,9,9,9,42,67,
67,100,1,1,1,5,1,5,5,9,9,9,1,5,9,5,9,5,9,1,1,1,5,9,9,1,5,1,1,5,1,9,5,5,5,1,5,1,38,67,
67,108,1,5,5,1,1,5,9,5,9,5,1,5,9,9,1,1,1,1,5,5,1,5,9,5,5,9,9,5,1,9,9,5,9,9,9,1,42,67,
67,108,5,1,1,9,9,5,1,1,5,9,1,9,1,1,1,9,5,5,9,9,9,1,5,5,9,5,1,1,1,1,5,5,5,1,9,1,34,67,
67,100,5,1,1,9,9,1,9,9,9,1,9,1,9,5,1,5,1,5,9,1,1,1,1,9,9,1,9,1,9,5,5,9,1,9,9,5,38,67,
67,108,9,1,5,5,5,1,1,5,1,1,9,5,1,1,5,5,5,1,9,5,1,5,9,1,5,5,1,1,1,1,9,1,9,9,9,5,42,67,
67,100,1,1,1,5,5,1,1,5,9,5,5,5,1,5,5,9,5,9,9,5,1,5,1,1,9,5,5,5,5,9,5,5,9,5,9,1,42,67,
67,104,1,9,5,1,1,9,1,5,9,9,5,9,5,9,5,5,9,5,9,1,1,1,5,9,1,5,1,5,9,5,5,9,1,9,5,5,42,67,
67,100,84,114,114,111,80,110,118,118,118,118,118,115,9,1,1,1,1,5,1,1,1,9,9,5,1,1,9,1,1,5,9,9,5,9,9,9,34,67,
67,100,112,21,21,109,20,13,13,13,13,13,21,117,118,145,226,226,126,126,226,122,122,122,226,226,146,111,9,9,5,80,119,1,84,110,119,1,38,67,
67,104,116,13,17,13,21,17,17,17,17,21,21,21,13,240,29,25,129,129,29,25,129,129,142,168,246,23,115,1,84,24,109,118,24,13,117,115,38,67,
67,100,116,13,21,13,21,13,21,21,17,17,13,17,14,210,248,176,173,29,25,129,30,60,243,49,113,20,113,110,20,21,13,21,21,13,18,78,42,67,
67,108,47,56,53,21,17,17,21,13,13,14,52,48,86,9,51,48,212,29,25,25,62,1,88,24,17,21,17,21,13,13,17,17,21,17,50,9,38,67,
67,39,37,5,116,17,21,21,13,17,13,117,118,118,119,1,5,9,163,161,29,129,62,5,47,53,17,14,45,13,13,17,13,18,48,56,78,5,38,67,
67,67,108,9,47,45,21,21,21,21,17,13,13,17,117,111,1,1,9,124,129,129,242,119,1,55,56,78,51,48,49,17,13,117,115,9,10,44,66,67,
67,67,104,5,9,55,52,52,48,52,48,56,53,13,21,109,119,1,1,124,29,29,174,54,9,9,1,9,5,9,51,53,21,21,50,9,42,67,67,67,
67,67,104,5,9,1,1,5,1,9,5,5,51,45,13,18,82,9,5,124,29,129,166,46,5,9,1,9,1,5,5,51,56,56,86,1,42,67,67,67,
67,72,4,9,5,5,9,1,1,9,9,5,5,55,56,78,9,5,92,32,29,29,170,46,1,1,9,1,5,1,5,1,9,9,5,9,97,106,107,67,
67,104,5,1,1,9,5,5,5,1,1,1,1,9,1,9,5,88,178,29,29,129,170,50,88,119,88,115,88,110,119,5,1,5,1,5,1,9,34,67,
67,108,5,9,1,1,9,9,5,9,1,9,9,1,1,1,1,112,232,29,25,25,170,117,16,109,20,109,20,17,46,9,9,1,5,1,1,1,34,67,
67,100,1,5,1,9,1,5,9,9,9,9,1,1,5,9,1,120,240,25,129,29,233,209,48,52,52,52,56,56,82,1,5,5,1,1,1,9,34,67,
67,100,9,1,1,5,9,5,5,5,1,5,1,9,1,1,1,120,232,29,129,25,29,242,115,1,5,5,5,1,9,1,1,5,1,5,9,1,97,103,
67,108,9,1,1,80,119,1,5,88,115,9,5,9,1,9,88,148,140,25,29,29,142,198,117,119,1,9,9,5,1,1,5,5,5,9,5,9,5,34,
67,108,9,9,88,20,113,110,118,24,46,1,5,1,1,9,116,232,29,129,25,25,247,53,14,82,9,5,5,9,9,5,5,9,5,9,1,9,9,34,
67,43,36,41,47,48,56,48,56,56,86,1,9,2,37,5,51,212,29,25,129,129,121,149,86,1,5,1,9,5,1,9,5,5,1,1,9,10,44,70,
67,67,67,35,36,40,44,40,44,40,40,40,44,70,39,44,33,128,25,129,29,129,26,90,9,10,44,36,36,44,44,40,40,40,40,40,36,70,67,67,
67,67,67,67,67,67,67,67,67,67,67,67,67,67,67,67,104,228,129,29,129,25,58,6,40,66,67,67,67,67,67,67,67,67,67,67,67,67,67,67
  </data>
 </layer>
 <layer id="2" name="Decor" width="40" height="30">
  <data encoding="csv">
0,0,0,0,0,0,0,0,0,0,0,0,0,0,0,0,0,0,0,0,0,0,0,0,0,0,0,0,0,0,0,0,0,0,0,0,0,0,0,0,
0,0,0,0,0,0,0,0,0,0,0,0,0,0,0,0,0,0,0,0,0,0,0,0,0,0,0,0,0,0,0,0,0,0,0,0,0,0,0,0,
0,0,0,0,0,0,0,0,0,0,0,0,0,0,0,0,0,0,0,0,0,0,0,0,0,0,0,0,0,0,0,0,0,0,0,0,0,0,0,0,
0,0,0,0,0,0,0,0,0,0,0,0,0,0,0,0,0,0,0,0,0,0,0,0,0,0,0,0,0,0,0,0,0,0,0,0,0,0,0,0,
0,0,0,0,0,0,0,0,0,0,0,0,0,0,0,0,0,0,0,0,0,0,0,0,0,0,0,0,0,0,0,0,0,0,0,0,0,0,0,0,
0,0,0,0,0,0,0,0,0,0,0,0,0,0,0,0,0,0,0,0,0,0,0,0,0,0,0,0,0,0,0,0,0,0,0,0,0,0,0,0,
0,0,0,0,0,0,0,0,0,0,0,0,0,0,0,0,0,0,0,0,0,0,0,0,0,0,0,0,0,0,0,0,0,0,0,0,0,0,0,0,
0,0,0,0,0,0,0,0,0,0,0,0,0,0,0,0,0,0,0,0,0,0,0,0,0,0,0,0,0,0,0,0,0,0,0,0,0,0,0,0,
0,0,0,0,0,0,0,0,0,0,0,0,0,0,0,0,0,0,0,0,0,0,0,0,0,0,0,0,0,0,0,0,0,0,0,0,0,0,0,0,
0,0,0,0,0,0,0,0,0,0,0,0,0,0,0,0,0,0,0,0,0,0,0,0,0,0,0,0,0,0,0,0,0,0,0,0,0,0,0,0,
0,0,0,0,0,0,0,0,0,0,0,0,0,266,0,263,0,266,257,0,269,275,0,0,0,0,0,0,0,0,0,0,0,0,0,0,0,0,0,0,
0,0,0,0,0,0,0,0,0,0,0,0,0,0,0,0,0,0,0,0,0,0,0,0,0,0,0,0,0,0,0,0,0,0,0,0,0,0,0,0,
0,0,0,0,0,0,0,0,0,0,0,0,0,0,0,0,0,0,0,0,0,0,0,0,0,0,0,0,0,0,0,0,0,0,0,0,0,0,0,0,
0,0,0,0,0,0,0,0,260,0,0,0,0,0,0,0,0,0,0,0,0,0,0,0,0,0,0,0,0,0,0,0,0,0,0,0,0,0,0,0,
0,0,0,0,0,266,286,0,0,0,0,0,0,0,0,0,0,280,0,0,0,0,275,0,0,0,0,0,0,0,0,0,262,285,0,258,262,0,0,0,
0,0,0,258,0,0,0,0,0,0,0,0,258,0,266,0,0,0,0,0,274,0,0,272,0,0,0,0,0,0,0,0,0,0,0,0,0,262,0,0,
0,0,0,0,0,0,0,0,0,0,0,0,0,0,279,0,0,263,0,0,0,0,0,0,0,0,0,0,0,0,0,0,0,0,0,0,0,0,0,0,
0,0,0,266,0,0,0,0,0,266,0,0,0,0,0,274,0,0,0,0,0,0,0,279,0,0,0,0,0,0,0,258,0,0,0,0,0,0,0,0,
0,0,280,0,272,0,0,0,0,0,280,0,0,0,0,0,0,270,275,0,276,0,0,0,0,0,0,276,275,0,0,0,0,0,0,277,0,0,0,0,
0,0,0,0,272,0,281,282,0,262,0,0,0,0,0,0,0,0,0,0,0,0,0,0,0,0,0,272,0,266,0,0,0,0,281,282,0,0,0,0,
0,0,0,257,0,0,0,258,0,0,0,0,267,0,0,0,0,0,0,0,0,0,0,0,0,0,0,260,0,0,0,0,0,272,0,0,0,0,0,0,
0,0,0,0,0,0,0,258,0,0,0,0,0,0,268,0,0,0,0,277,0,0,0,0,0,0,0,0,0,0,0,0,0,268,0,0,0,0,0,0,
0,0,0,0,0,0,0,0,0,0,0,0,0,0,257,0,0,0,0,277,0,0,0,0,0,266,0,0,0,0,0,0,0,266,0,0,0,259,0,0,
0,0,0,266,0,0,0,275,0,0,0,0,0,0,0,0,0,0,0,0,0,0,0,0,0,0,0,0,0,0,0,0,0,0,0,0,260,0,0,0,
0,0,0,0,0,0,0,0,0,0,0,0,0,0,0,0,0,0,0,0,0,0,0,0,0,0,0,0,0,0,0,0,0,0,271,0,0,0,0,0,
0,0,0,0,0,0,0,0,0,0,0,0,0,0,0,261,0,0,0,0,0,0,0,0,0,0,0,0,0,0,0,0,0,0,0,0,0,0,0,0,
0,0,0,0,0,0,0,0,0,0,0,0,0,0,263,0,0,0,0,0,0,273,0,0,0,0,0,0,0,0,0,0,0,0,0,0,0,0,0,0,
0,0,0,0,0,0,0,0,0,279,0,0,272,0,0,0,0,0,0,0,0,0,0,0,0,0,0,0,0,0,0,0,0,0,0,0,0,0,0,0,
0,0,0,0,0,0,0,0,0,0,0,0,0,0,0,0,0,0,273,0,0,0,0,0,0,0,0,0,0,0,286,0,0,0,0,0,0,0,0,0,
0,0,0,0,0,0,0,0,0,0,0,0,0,0,0,0,0,0,0,0,0,0,0,0,0,0,0,0,0,0,0,0,0,0,0,0,0,0,0,0
  </data>
 </layer>
 <layer id="3" name="Forest" width="40" height="30">
  <data encoding="csv">
1545,1546,1547,1202,1203,1204,1205,1206,1537,1538,1539,1540,1541,1542,1543,1544,1199,1200,1201,1202,1203,1204,1205,1206,1199,1200,1201,1202,1203,1204,1205,1206,1537,1538,1539,1540,1541,1548,1549,1550,
1577,1578,1579,1234,1235,1236,1237,1238,1569,1570,1571,1572,1573,1574,1575,1576,1231,1232,1233,1234,1235,1236,1237,1238,1231,1232,1233,1234,1235,1236,1237,1238,1569,1570,1571,1572,1573,1580,1581,1582,
1609,1610,1611,1266,1267,1268,1269,1270,1601,1602,1603,1604,1605,1606,1607,1608,1263,1264,1265,1266,1267,1268,1269,1270,1263,1264,1265,1266,1267,1268,1269,1270,1601,1602,1603,1604,1605,1612,1613,1614,
1641,1642,1643,1298,1299,1300,1301,1302,1633,1634,1635,1636,1637,1638,1639,1640,1295,1296,1297,1298,1299,1300,1301,1302,1295,1296,1297,1298,1299,1300,1301,1302,1633,1634,1635,1636,1637,1644,1645,1646,
1673,1674,1675,1330,1331,1332,1333,1334,1665,1666,1667,1668,1669,1670,1671,1672,1327,1328,1329,1330,1331,1332,1333,1334,1327,1328,1329,1330,1331,1332,1333,1334,1665,1666,1667,1668,1669,1676,1677,1678,
1705,1706,1707,1362,1363,1364,1365,1366,1697,1698,1699,1700,1701,1702,1703,1704,1359,1360,1361,1362,1363,1364,1365,1366,1359,1360,1361,1362,1363,1364,1365,1366,1697,1698,1699,1700,1701,1708,1709,1710,
1737,1738,1739,1394,1395,1396,1397,1398,1729,1730,1731,1732,1733,1734,1735,1736,1391,1392,1393,1394,1395,1396,1397,1398,1391,1392,1393,1394,1395,1396,1397,1398,1729,1730,1731,1732,1733,1740,1741,1742,
1769,1770,1771,1426,1427,1428,1429,1430,1761,1762,1763,1764,1765,1766,1767,1768,1423,1424,1425,1426,1427,1428,1429,1430,1423,1424,1425,1426,1427,1428,1429,1430,1761,1762,1763,1764,1765,1772,1773,1774,
1801,1802,1803,1458,1459,1460,1461,1462,1793,1794,1795,1796,1797,1798,1799,1800,1455,1456,1457,1458,1459,1460,1461,1462,1455,1456,1457,1458,1459,1460,1461,1462,1793,1794,1795,1796,1797,1804,1805,1806,
1833,1834,1835,1490,1491,1492,1493,1494,1825,1826,1827,1828,1829,1830,1831,1832,1487,1488,1489,1490,1491,1492,1493,1494,1487,1488,1489,1490,1491,1492,1493,1494,1825,1826,1827,1828,1829,1836,1837,1838,
1865,1866,1867,1522,1523,1524,1525,1526,1857,1858,1859,1860,1861,1862,1863,1864,1519,1520,1521,1522,1523,1524,1525,1526,1519,1520,1521,1522,1523,1524,1525,1526,1857,1858,1859,1860,1861,1868,1869,1870,
0,0,0,0,0,0,0,0,0,0,0,0,0,0,0,0,0,0,0,0,0,0,0,0,0,0,0,0,0,0,0,0,0,0,0,0,0,0,0,0,
0,0,0,0,0,0,0,0,0,0,0,0,0,0,0,0,0,0,0,0,0,0,0,0,0,0,0,0,0,0,0,0,0,0,0,0,0,0,0,0,
0,0,0,0,0,0,0,0,0,0,0,0,0,0,0,0,0,0,0,0,0,0,0,0,0,0,0,0,0,0,0,0,0,0,0,0,0,0,0,0,
0,0,0,0,0,0,0,0,0,0,0,0,0,0,0,0,0,0,0,0,0,0,0,0,0,0,0,0,0,0,0,0,0,0,0,0,0,0,0,0,
0,0,0,0,0,0,0,0,0,0,0,0,0,0,0,0,0,0,0,0,0,0,0,0,0,0,0,0,0,0,0,0,0,0,0,0,0,0,0,0,
0,0,0,0,0,0,0,0,0,0,0,0,0,0,0,0,0,0,0,0,0,0,0,0,0,0,0,0,0,0,0,0,0,0,0,0,0,0,0,0,
0,0,0,0,0,0,0,0,0,0,0,0,0,0,0,0,0,0,0,0,0,0,0,0,0,0,0,0,0,0,0,0,0,0,0,0,0,0,0,0,
0,0,0,0,0,0,0,0,0,0,0,0,0,0,0,0,0,0,0,0,0,0,0,0,0,0,0,0,0,0,0,0,0,0,0,0,0,0,0,0,
0,0,0,0,0,0,0,0,0,0,0,0,0,0,0,0,0,0,0,0,0,0,0,0,0,0,0,0,0,0,0,0,0,0,0,0,0,0,0,0,
0,0,0,0,0,0,0,0,0,0,0,0,0,0,0,0,0,0,0,0,0,0,0,0,0,0,0,0,0,0,0,0,0,0,0,0,0,0,0,0,
0,0,0,0,0,0,0,0,0,0,0,0,0,0,0,0,0,0,0,0,0,0,0,0,0,0,0,0,0,0,0,0,0,0,0,0,0,0,0,0,
0,0,0,0,0,0,0,0,0,0,0,0,0,0,0,0,0,0,0,0,0,0,0,0,0,0,0,0,0,0,0,0,0,0,0,0,0,0,0,0,
0,0,0,0,0,0,0,0,0,0,0,0,0,0,0,0,0,0,0,0,0,0,0,0,0,0,0,0,0,0,0,0,0,0,0,0,0,0,0,0,
0,0,0,0,0,0,0,0,0,0,0,0,0,0,0,0,0,0,0,0,0,0,0,0,0,0,0,0,0,0,0,0,0,0,0,0,0,0,0,0,
0,0,0,0,0,0,0,0,0,0,0,0,0,0,0,0,0,0,0,0,0,0,0,0,0,0,0,0,0,0,0,0,0,0,0,0,0,0,0,0,
0,0,0,0,0,0,0,0,0,0,0,0,0,0,0,0,0,0,0,0,0,0,0,0,0,0,0,0,0,0,0,0,0,0,0,0,0,0,0,0,
0,0,0,0,0,0,0,0,0,0,0,0,0,0,0,0,0,0,0,0,0,0,0,0,0,0,0,0,0,0,0,0,0,0,0,0,0,0,0,0,
0,0,0,0,0,0,0,0,0,0,0,0,0,0,0,0,0,0,0,0,0,0,0,0,0,0,0,0,0,0,0,0,0,0,0,0,0,0,0,0,
0,0,0,0,0,0,0,0,0,0,0,0,0,0,0,0,0,0,0,0,0,0,0,0,0,0,0,0,0,0,0,0,0,0,0,0,0,0,0,0
  </data>
 </layer>
 <layer id="4" name="Objects 1" width="40" height="30">
  <data encoding="csv">
0,0,0,0,0,0,0,0,0,0,0,0,0,0,0,0,0,0,0,0,0,0,0,0,0,0,0,0,0,0,0,0,0,0,0,0,0,0,0,0,
0,0,0,0,0,0,0,0,0,0,0,0,0,0,0,0,0,0,0,0,0,0,0,0,0,0,0,0,0,0,0,0,0,0,0,0,0,0,0,0,
0,0,0,0,0,0,0,0,0,0,0,0,0,0,0,0,0,0,0,0,0,0,0,0,0,0,0,0,0,0,0,0,0,0,0,0,0,0,0,0,
0,0,0,0,0,0,0,0,0,0,0,0,0,0,0,0,0,0,0,0,0,0,0,0,0,0,0,0,0,0,0,0,0,0,0,0,0,0,0,0,
0,0,0,0,0,0,0,0,0,0,0,0,0,0,0,0,0,0,0,0,0,0,0,0,0,0,0,0,0,0,0,0,0,0,0,0,0,0,0,0,
0,0,0,0,0,0,0,0,0,0,0,0,0,0,0,0,0,0,0,0,0,0,0,0,0,0,0,0,0,0,0,0,0,0,0,0,0,0,0,0,
0,0,0,0,0,0,0,0,0,0,0,0,0,0,0,0,0,0,0,0,0,0,0,0,0,0,0,0,0,0,0,0,0,0,0,0,0,0,0,0,
0,0,0,0,0,0,0,0,0,0,0,0,0,0,0,0,0,0,0,0,0,0,0,0,0,0,0,0,0,0,0,0,0,0,0,0,627,628,0,0,
0,0,0,0,0,0,0,0,0,0,0,0,0,0,0,0,0,0,0,0,0,0,0,0,0,0,0,0,0,0,0,0,0,0,0,0,0,0,0,0,
0,0,0,0,0,0,0,0,0,0,0,0,0,0,0,1025,1026,1027,1028,1029,1030,1031,1032,1033,1034,1035,0,0,0,0,0,0,0,0,0,0,0,0,0,0,
0,0,0,0,0,0,0,0,0,0,0,593,594,0,0,1057,1058,1059,1060,1061,1062,1063,1064,1065,1066,1067,0,0,0,0,0,1320,1321,1322,1323,1324,1325,1326,0,0,
0,0,706,707,0,0,0,0,0,0,0,294,0,301,0,1089,1090,1091,1092,1093,1094,1095,1096,1097,1098,1099,0,0,678,679,295,1352,1353,1354,1355,1356,1357,1358,0,0,
0,0,0,0,0,0,0,0,0,0,325,326,331,333,303,1121,1122,1123,1124,1125,1126,1127,1128,1129,1130,1131,0,0,0,0,327,1384,1385,1386,1387,1388,1389,1390,294,0,
0,0,0,0,0,0,0,0,0,0,0,0,0,0,335,1153,268,0,1156,1157,1158,1159,1160,1161,262,1163,0,0,0,0,0,0,0,330,0,0,0,0,326,0,
0,0,0,0,0,0,0,0,0,0,0,0,0,0,0,0,0,0,0,0,0,0,0,0,0,0,0,0,0,0,0,0,0,0,0,0,0,0,0,0,
0,0,0,0,0,0,0,0,0,0,0,0,0,0,0,0,0,0,0,0,0,0,0,0,0,0,0,0,0,0,0,0,0,0,0,0,0,0,0,0,
0,0,0,0,0,0,0,0,0,0,0,0,0,0,0,0,0,0,0,0,0,0,0,0,0,0,0,0,0,0,0,0,0,0,0,0,0,0,0,0,
0,0,0,0,0,0,0,0,0,0,0,371,372,373,0,0,0,0,0,0,0,0,0,0,0,0,0,0,0,0,0,0,0,0,0,369,370,0,0,0,
0,0,0,0,0,0,0,0,0,0,0,403,404,405,0,0,0,0,0,0,0,0,0,0,406,407,408,0,0,0,0,0,0,0,0,0,0,0,0,0,
0,0,0,0,0,0,0,0,0,0,0,0,0,0,0,0,0,0,0,0,0,0,0,0,438,439,440,0,0,0,0,0,0,0,0,0,0,0,0,0,
0,627,628,0,0,0,0,0,0,0,0,0,0,0,0,0,0,0,0,0,0,0,0,0,0,0,0,0,0,0,0,0,0,0,0,0,0,0,0,0,
0,0,0,0,0,0,0,0,0,0,0,0,0,0,0,0,0,0,0,0,0,0,0,0,0,0,0,0,0,0,0,0,0,0,0,0,0,0,0,0,
0,0,0,0,0,0,0,0,0,0,0,0,0,0,0,0,0,0,0,0,0,0,0,0,0,0,0,0,0,0,0,0,0,0,0,0,0,0,0,0,
0,0,295,0,0,0,0,0,0,0,0,0,0,0,0,0,0,0,0,0,0,0,0,0,0,0,0,0,0,0,0,0,0,0,0,0,0,0,0,0,
0,0,327,885,886,887,888,889,890,891,0,0,0,0,0,0,0,0,0,0,0,0,0,0,0,0,0,0,0,0,0,0,0,0,0,0,0,0,0,0,
0,0,297,917,918,919,920,921,922,923,289,291,593,594,0,0,0,0,0,0,0,0,0,0,0,0,0,0,908,909,910,911,912,913,914,915,916,0,0,0,
0,0,329,949,950,951,952,953,954,955,321,323,325,0,0,0,0,0,0,0,0,0,0,0,289,290,294,296,940,941,942,943,944,945,946,947,948,332,622,623,
0,0,0,0,0,0,0,0,0,0,0,0,0,0,0,0,0,0,0,0,0,0,0,0,321,322,326,328,972,973,974,975,976,977,978,979,980,0,0,0,
0,0,0,0,0,0,0,0,0,0,0,0,0,0,0,0,0,0,0,0,0,0,0,0,0,0,0,0,0,0,0,0,0,0,0,0,0,0,0,0,
0,0,0,0,0,0,0,0,0,0,0,0,0,0,0,0,0,0,0,0,0,0,0,0,0,0,0,0,0,0,0,0,0,0,0,0,0,0,0,0
  </data>
 </layer>
 <layer id="5" name="Objects 2" width="40" height="30">
  <data encoding="csv">
0,0,0,0,0,0,0,0,0,0,0,0,0,0,0,0,0,0,0,0,0,0,0,0,0,0,0,0,0,0,0,0,0,0,0,0,0,0,0,0,
0,0,0,0,0,0,0,0,0,0,0,0,0,0,0,0,0,0,0,0,0,0,0,0,0,0,0,0,0,0,0,0,0,0,0,0,0,0,0,0,
0,0,0,0,0,0,0,0,0,0,0,0,0,0,0,0,0,0,0,0,0,0,0,0,0,0,0,0,0,0,0,0,0,0,0,0,0,0,0,0,
0,0,0,0,0,0,0,0,0,0,0,0,0,0,0,0,0,0,0,0,0,0,0,0,0,0,0,0,0,0,0,0,0,0,0,0,0,0,0,0,
0,0,0,0,0,0,0,0,0,0,0,0,0,0,0,0,0,0,0,0,0,0,0,0,0,0,0,0,0,0,0,0,0,0,0,0,0,0,0,0,
0,0,0,0,0,0,0,0,0,0,0,0,0,0,0,0,0,0,0,0,0,0,0,0,0,0,0,0,0,0,0,0,0,0,0,0,0,0,0,0,
0,0,0,0,0,0,0,0,0,0,0,0,0,0,0,0,0,0,0,0,0,0,0,0,0,0,0,0,0,0,0,0,0,0,0,0,0,0,0,0,
0,0,0,0,0,0,0,0,0,0,0,0,0,0,0,0,0,0,0,0,0,0,0,0,0,0,0,0,0,0,0,0,0,0,0,0,0,0,0,0,
0,0,0,0,0,0,0,0,0,0,0,0,0,0,0,0,0,0,0,0,0,0,0,0,0,0,0,0,0,0,0,0,0,0,0,0,0,0,0,0,
0,0,0,0,0,0,0,0,0,0,0,0,0,0,0,0,0,0,0,0,0,0,0,0,0,0,0,0,0,0,0,0,0,0,0,0,0,0,0,0,
0,0,0,1313,1314,1315,1316,1317,1318,1319,0,0,0,0,0,0,0,0,0,0,0,0,0,0,0,0,0,0,0,0,0,0,0,0,0,0,0,0,0,0,
0,0,0,1345,1346,1347,1348,1349,1350,1351,0,0,0,0,0,0,0,0,0,0,0,0,0,0,0,0,0,0,0,0,0,0,296,0,0,0,0,0,0,0,
0,0,0,1377,1378,1379,1380,1381,1382,1383,0,0,0,0,0,0,0,0,0,0,0,0,0,0,0,0,0,0,0,0,0,0,328,260,0,289,267,290,0,0,
0,0,0,0,0,0,0,0,0,0,0,0,0,0,0,0,0,0,0,0,0,0,272,0,0,0,0,0,0,0,0,0,0,0,0,321,0,322,0,0,
0,0,0,0,0,0,0,0,0,0,0,0,0,0,0,0,0,0,0,0,0,0,0,0,0,0,0,0,0,0,0,0,0,0,0,0,0,0,0,0,
0,0,0,0,0,0,0,0,0,0,0,0,0,0,0,0,0,0,0,0,0,0,0,0,0,0,0,0,0,0,0,0,0,0,0,0,0,0,0,0,
0,0,0,0,0,0,0,0,0,0,0,0,0,0,0,0,0,0,0,0,0,0,0,0,0,0,0,0,0,0,0,0,0,0,0,0,0,0,0,0,
0,0,0,0,0,0,0,0,0,0,0,0,0,0,0,0,0,0,0,0,0,0,0,0,0,0,0,0,0,0,0,0,0,0,0,259,0,0,0,0,
0,0,0,0,0,0,0,0,0,0,0,260,0,266,0,0,0,0,0,0,0,0,0,0,0,0,0,0,0,0,0,0,0,0,0,0,0,0,0,0,
0,0,0,0,0,0,0,0,0,0,0,0,0,0,0,0,0,0,0,0,0,0,0,0,0,269,258,0,0,0,0,0,0,0,0,0,0,0,0,0,
0,264,0,0,0,0,0,0,0,0,0,0,0,0,0,0,0,0,0,0,0,0,0,0,0,0,0,0,0,0,0,0,0,0,0,0,0,0,0,0,
0,0,0,0,0,0,0,0,0,0,0,0,0,0,0,0,0,0,0,0,0,0,0,0,0,0,0,0,0,0,0,0,0,0,0,0,0,0,0,0,
0,0,0,0,0,0,0,0,0,0,0,0,0,0,0,0,0,0,0,0,0,0,0,0,0,0,0,0,0,0,0,0,0,0,0,0,0,0,0,0,
0,0,0,0,0,0,0,0,0,0,0,0,0,0,0,0,0,0,0,0,0,0,0,0,0,0,0,0,0,0,0,0,0,0,0,0,0,0,0,0,
0,0,0,0,0,0,0,0,0,0,0,0,0,0,0,0,0,0,0,0,0,0,0,0,0,0,0,0,0,0,0,0,0,0,0,0,0,0,0,0,
0,0,0,0,0,0,0,0,0,0,0,0,262,294,0,0,0,0,0,0,0,0,0,0,0,0,0,0,0,0,0,0,0,0,0,0,0,0,0,0,
0,0,0,0,261,0,0,0,269,0,0,0,0,326,0,0,0,0,0,0,0,0,0,0,0,0,0,0,0,0,0,0,0,0,0,0,0,268,0,0,
0,0,0,0,0,0,0,0,0,0,0,0,0,0,0,0,0,0,0,0,0,0,0,0,0,0,0,0,0,257,0,0,0,271,0,263,0,0,0,0,
0,0,0,0,0,0,0,0,0,0,0,0,0,0,0,0,0,0,0,0,0,0,0,0,0,0,0,0,0,0,0,0,0,0,0,0,0,0,0,0,
0,0,0,0,0,0,0,0,0,0,0,0,0,0,0,0,0,0,0,0,0,0,0,0,0,0,0,0,0,0,0,0,0,0,0,0,0,0,0,0
  </data>
 </layer>
 <layer id="6" name="Objects 3" width="40" height="30">
  <data encoding="csv">
0,0,0,0,0,0,0,0,0,0,0,0,0,0,0,0,0,0,0,0,0,0,0,0,0,0,0,0,0,0,0,0,0,0,0,0,0,0,0,0,
0,0,0,0,0,0,0,0,0,0,0,0,0,0,0,0,0,0,0,0,0,0,0,0,0,0,0,0,0,0,0,0,0,0,0,0,0,0,0,0,
0,0,0,0,0,0,0,0,0,0,0,0,0,0,0,0,0,0,0,0,0,0,0,0,0,0,0,0,0,0,0,0,0,0,0,0,0,0,0,0,
0,0,0,0,0,0,0,0,0,0,0,0,0,0,0,0,0,0,0,0,0,0,0,0,0,0,0,0,0,0,0,0,0,0,0,0,0,0,0,0,
0,0,0,0,0,0,0,0,0,0,0,0,0,0,0,0,0,0,0,0,0,0,0,0,0,0,0,0,0,0,0,0,0,0,0,0,0,0,0,0,
0,0,0,0,0,0,0,0,0,0,0,0,0,0,0,0,0,0,0,0,0,0,0,0,0,0,0,0,0,0,0,0,0,0,0,0,0,0,0,0,
0,0,0,0,0,0,0,0,0,0,0,0,0,0,0,0,0,0,0,0,0,0,0,0,0,0,0,0,0,0,0,0,0,0,0,0,0,0,0,0,
0,0,0,0,0,0,0,0,0,0,0,0,0,0,0,0,0,0,0,0,0,0,0,0,0,0,0,0,0,0,0,0,0,0,0,0,0,0,0,0,
0,0,0,0,0,0,0,0,0,0,0,0,0,0,0,0,0,0,0,0,0,0,0,0,0,0,0,0,0,0,0,0,0,0,0,0,0,0,0,0,
0,0,0,0,0,0,0,0,0,0,0,0,0,0,0,0,0,0,0,0,0,0,0,0,0,0,0,0,0,0,0,0,0,0,0,0,0,0,0,0,
0,0,0,0,0,0,0,0,0,0,0,0,0,0,0,0,0,0,0,0,0,0,0,0,0,0,0,0,0,0,0,0,0,0,0,0,0,0,0,0,
0,0,0,0,0,0,0,289,290,291,0,0,0,0,0,0,0,0,0,0,0,0,0,0,0,0,0,0,0,0,0,0,0,0,0,0,0,0,0,0,
0,0,0,260,0,258,0,321,322,323,0,0,0,0,0,0,0,0,0,0,0,0,0,0,0,0,0,0,0,0,0,0,0,0,0,0,292,0,0,0,
0,0,0,0,0,0,0,0,0,0,0,0,0,0,0,0,0,0,0,0,0,0,0,0,0,0,0,0,0,0,0,0,0,0,0,0,324,0,0,0,
0,0,0,0,0,0,0,0,0,0,0,0,0,0,0,0,0,0,0,0,0,0,0,0,0,0,0,0,0,0,0,0,0,0,0,0,0,0,0,0,
0,0,0,0,0,0,0,0,0,0,0,0,0,0,0,0,0,0,0,0,0,0,0,0,0,0,0,0,0,0,0,0,0,0,0,0,0,0,0,0,
0,0,0,0,0,0,0,0,0,0,0,0,0,0,0,0,0,0,0,0,0,0,0,0,0,0,0,0,0,0,0,0,0,0,0,0,0,0,0,0,
0,0,0,0,0,0,0,0,0,0,0,0,0,0,0,0,0,0,0,0,0,0,0,0,0,0,0,0,0,0,0,0,0,0,0,0,0,0,0,0,
0,0,0,0,0,0,0,0,0,0,0,0,0,0,0,0,0,0,0,0,0,0,0,0,0,0,0,0,0,0,0,0,0,0,0,0,0,0,0,0,
0,0,0,0,0,0,0,0,0,0,0,0,0,0,0,0,0,0,0,0,0,0,0,0,0,0,0,0,0,0,0,0,0,0,0,0,0,0,0,0,
0,0,0,0,0,0,0,0,0,0,0,0,0,0,0,0,0,0,0,0,0,0,0,0,0,0,0,0,0,0,0,0,0,0,0,0,0,0,0,0,
0,0,0,0,0,0,0,0,0,0,0,0,0,0,0,0,0,0,0,0,0,0,0,0,0,0,0,0,0,0,0,0,0,0,0,0,0,0,0,0,
0,0,0,0,0,0,0,0,0,0,0,0,0,0,0,0,0,0,0,0,0,0,0,0,0,0,0,0,0,0,0,0,0,0,0,0,0,0,0,0,
0,0,0,0,0,0,0,0,0,0,0,0,0,0,0,0,0,0,0,0,0,0,0,0,0,0,0,0,0,0,0,0,0,0,0,0,0,0,0,0,
0,0,0,0,0,0,0,0,0,0,0,0,0,0,0,0,0,0,0,0,0,0,0,0,0,0,0,0,0,0,0,0,0,0,0,0,0,0,0,0,
0,0,0,0,0,0,0,0,0,0,0,0,0,0,0,0,0,0,0,0,0,0,0,0,0,0,0,0,0,0,0,0,0,0,0,0,0,0,0,0,
0,0,0,0,0,0,0,0,0,0,0,0,0,0,0,0,0,0,0,0,0,0,0,0,0,0,0,0,0,0,0,0,0,0,0,0,0,0,0,0,
0,0,0,0,0,0,0,0,0,0,0,0,0,0,0,0,0,0,0,0,0,0,0,0,0,0,0,0,0,0,0,0,0,0,0,0,0,0,0,0,
0,0,0,0,0,0,0,0,0,0,0,0,0,0,0,0,0,0,0,0,0,0,0,0,0,0,0,0,0,0,0,0,0,0,0,0,0,0,0,0,
0,0,0,0,0,0,0,0,0,0,0,0,0,0,0,0,0,0,0,0,0,0,0,0,0,0,0,0,0,0,0,0,0,0,0,0,0,0,0,0
  </data>
 </layer>
 <layer id="7" name="Objects 4" width="40" height="30">
  <data encoding="csv">
0,0,0,0,0,0,0,0,0,0,0,0,0,0,0,0,0,0,0,0,0,0,0,0,0,0,0,0,0,0,0,0,0,0,0,0,0,0,0,0,
0,0,0,0,0,0,0,0,0,0,0,0,0,0,0,0,0,0,0,0,0,0,0,0,0,0,0,0,0,0,0,0,0,0,0,0,0,0,0,0,
0,0,0,0,0,0,0,0,0,0,0,0,0,0,0,0,0,0,0,0,0,0,0,0,0,0,0,0,0,0,0,0,0,0,0,0,0,0,0,0,
0,0,0,0,0,0,0,0,0,0,0,0,0,0,0,0,0,0,0,0,0,0,0,0,0,0,0,0,0,0,0,0,0,0,0,0,0,0,0,0,
0,0,0,0,0,0,0,0,0,0,0,0,0,0,0,0,0,0,0,0,0,0,0,0,0,0,0,0,0,0,0,0,0,0,0,0,0,0,0,0,
0,0,0,0,0,0,0,0,0,0,0,0,0,0,0,0,0,0,0,0,0,0,0,0,0,0,0,0,0,0,0,0,0,0,0,0,0,0,0,0,
0,0,0,0,0,0,0,0,0,0,0,0,0,0,0,0,0,0,0,0,0,0,0,0,0,0,0,0,0,0,0,0,0,0,0,0,0,0,0,0,
0,0,0,0,0,0,0,0,0,0,0,0,0,0,0,0,0,0,0,0,0,0,0,0,0,0,0,0,0,0,0,0,0,0,0,0,0,0,0,0,
0,0,0,0,0,0,0,0,0,0,0,0,0,0,0,0,0,0,0,0,0,0,0,0,0,0,0,0,0,0,0,0,0,0,0,0,0,0,0,0,
0,0,0,0,0,0,0,0,0,0,0,0,0,0,0,0,0,0,0,0,0,0,0,0,0,0,0,0,0,0,0,0,0,0,0,0,0,0,0,0,
0,0,0,0,0,0,0,0,0,0,0,0,0,0,0,0,0,0,0,0,0,0,0,0,0,0,0,0,0,0,0,0,0,0,0,0,0,0,0,0,
0,0,0,0,0,0,0,0,0,0,0,0,0,0,0,0,0,0,0,0,0,0,0,0,0,0,0,0,0,0,0,0,0,0,0,0,0,0,0,0,
0,0,0,0,0,0,0,0,263,0,0,0,0,0,0,0,0,0,0,0,0,0,0,0,0,0,0,0,0,0,0,0,0,0,0,0,0,0,0,0,
0,0,0,0,0,0,0,0,0,0,0,0,0,0,0,0,0,0,0,0,0,0,0,0,0,0,0,0,0,0,0,0,0,0,0,0,0,0,0,0,
0,0,0,0,0,0,0,0,0,0,0,0,0,0,0,0,0,0,0,0,0,0,0,0,0,0,0,0,0,0,0,0,0,0,0,0,0,0,0,0,
0,0,0,0,0,0,0,0,0,0,0,0,0,0,0,0,0,0,0,0,0,0,0,0,0,0,0,0,0,0,0,0,0,0,0,0,0,0,0,0,
0,0,0,0,0,0,0,0,0,0,0,0,0,0,0,0,0,0,0,0,0,0,0,0,0,0,0,0,0,0,0,0,0,0,0,0,0,0,0,0,
0,0,0,0,0,0,0,0,0,0,0,0,0,0,0,0,0,0,0,0,0,0,0,0,0,0,0,0,0,0,0,0,0,0,0,0,0,0,0,0,
0,0,0,0,0,0,0,0,0,0,0,0,0,0,0,0,0,0,0,0,0,0,0,0,0,0,0,0,0,0,0,0,0,0,0,0,0,0,0,0,
0,0,0,0,0,0,0,0,0,0,0,0,0,0,0,0,0,0,0,0,0,0,0,0,0,0,0,0,0,0,0,0,0,0,0,0,0,0,0,0,
0,0,0,0,0,0,0,0,0,0,0,0,0,0,0,0,0,0,0,0,0,0,0,0,0,0,0,0,0,0,0,0,0,0,0,0,0,0,0,0,
0,0,0,0,0,0,0,0,0,0,0,0,0,0,0,0,0,0,0,0,0,0,0,0,0,0,0,0,0,0,0,0,0,0,0,0,0,0,0,0,
0,0,0,0,0,0,0,0,0,0,0,0,0,0,0,0,0,0,0,0,0,0,0,0,0,0,0,0,0,0,0,0,0,0,0,0,0,0,0,0,
0,0,0,0,0,0,0,0,0,0,0,0,0,0,0,0,0,0,0,0,0,0,0,0,0,0,0,0,0,0,0,0,0,0,0,0,0,0,0,0,
0,0,0,0,0,0,0,0,0,0,0,0,0,0,0,0,0,0,0,0,0,0,0,0,0,0,0,0,0,0,0,0,0,0,0,0,0,0,0,0,
0,0,0,0,0,0,0,0,0,0,0,0,0,0,0,0,0,0,0,0,0,0,0,0,0,0,0,0,0,0,0,0,0,0,0,0,0,0,0,0,
0,0,0,0,0,0,0,0,0,0,0,0,0,0,0,0,0,0,0,0,0,0,0,0,0,0,0,0,0,0,0,0,0,0,0,0,0,0,0,0,
0,0,0,0,0,0,0,0,0,0,0,0,0,0,0,0,0,0,0,0,0,0,0,0,0,0,0,0,0,0,0,0,0,0,0,0,0,0,0,0,
0,0,0,0,0,0,0,0,0,0,0,0,0,0,0,0,0,0,0,0,0,0,0,0,0,0,0,0,0,0,0,0,0,0,0,0,0,0,0,0,
0,0,0,0,0,0,0,0,0,0,0,0,0,0,0,0,0,0,0,0,0,0,0,0,0,0,0,0,0,0,0,0,0,0,0,0,0,0,0,0
  </data>
 </layer>
 <layer id="8" name="Overhead 1" width="40" height="30">
  <data encoding="csv">
0,0,0,0,0,0,0,0,0,0,0,0,0,0,0,0,0,0,0,0,742,743,0,0,0,0,0,0,0,0,0,0,0,0,0,0,0,0,0,0,
0,0,0,0,0,0,0,0,0,0,0,0,0,0,0,0,0,0,0,773,774,775,0,0,0,0,0,0,0,0,0,0,0,0,0,0,0,0,0,0,
0,0,0,0,0,0,0,0,0,0,0,0,0,0,0,0,0,0,0,805,806,807,0,0,0,0,0,0,0,0,0,0,0,0,0,0,467,468,0,0,
0,449,450,0,0,0,0,0,0,0,0,0,0,0,0,0,0,835,836,837,838,839,840,0,0,0,0,0,0,0,0,0,0,0,0,0,0,500,0,0,
0,481,482,483,0,0,0,0,0,0,0,0,0,0,0,0,0,867,868,869,870,871,872,873,0,0,0,0,0,0,0,0,0,0,0,0,0,532,0,0,
0,513,514,515,0,0,0,0,0,0,0,0,0,0,0,0,0,899,900,901,902,903,904,905,0,0,0,485,486,487,488,0,0,0,0,0,563,564,0,0,
0,545,546,547,0,0,0,1189,1190,0,0,465,466,0,0,0,930,931,932,933,934,935,936,937,938,0,0,0,518,519,520,0,0,0,0,0,595,596,0,0,
0,577,578,1217,1218,1219,1220,1221,1222,1223,0,497,498,0,0,0,962,963,964,965,966,967,968,969,970,971,0,0,550,551,552,1224,1225,1226,1227,1228,1229,1230,0,0,
0,609,610,1249,1250,1251,1252,1253,1254,1255,0,529,530,0,0,993,994,995,996,997,998,999,1000,1001,1002,1003,0,0,582,583,0,1256,1257,1258,1259,1260,1261,1262,0,0,
0,0,642,1281,1282,1283,1284,1285,1286,1287,0,561,0,0,0,0,0,0,0,0,0,0,0,0,0,0,0,0,614,615,0,1288,1289,1290,1291,1292,1293,1294,0,0,
0,0,674,675,0,0,0,0,0,0,0,0,0,0,0,0,0,0,0,0,0,0,0,0,0,0,0,0,646,647,0,0,0,0,0,0,0,0,0,0,
0,0,0,0,0,0,0,0,0,0,0,0,0,0,0,0,0,0,0,0,0,0,0,0,0,0,0,0,0,0,0,0,0,0,0,0,0,0,0,0,
0,0,0,0,0,0,0,0,0,0,0,0,0,0,0,0,0,0,0,0,0,0,0,0,0,0,0,0,0,0,0,0,0,0,0,0,0,0,0,0,
0,0,0,0,0,0,0,0,0,0,0,0,0,0,0,0,0,0,0,0,0,0,0,0,0,0,0,0,0,0,0,0,0,0,0,0,0,0,0,0,
0,0,0,0,0,0,0,0,0,0,0,0,0,0,0,0,0,0,0,0,0,0,0,0,0,0,0,0,0,0,0,0,0,0,0,0,0,0,0,0,
0,467,468,0,0,0,0,0,0,0,0,307,308,309,0,0,0,0,0,0,0,0,0,0,0,311,0,0,0,0,0,0,0,0,0,305,306,0,0,0,
0,0,500,0,0,0,0,0,0,0,0,339,340,341,0,0,0,0,0,0,0,0,0,0,342,343,344,0,0,0,0,0,0,0,0,337,338,0,0,0,
0,0,532,0,0,0,0,0,0,0,0,0,0,0,0,0,0,0,0,0,0,0,0,0,374,375,376,0,0,0,0,0,0,0,0,0,0,0,0,0,
0,563,564,0,0,0,0,0,0,0,0,0,0,0,0,0,0,0,0,0,0,0,0,0,0,0,0,0,0,0,0,0,0,0,0,0,0,0,0,0,
0,595,596,0,0,0,0,0,0,0,0,0,0,0,0,0,0,0,0,0,0,0,0,0,0,0,0,0,0,0,0,0,0,0,0,0,0,0,0,0,
0,0,0,0,758,759,760,0,0,0,0,0,0,0,0,0,0,0,0,0,0,0,0,0,0,0,0,0,0,0,0,0,0,0,0,0,0,0,0,0,
0,0,0,0,790,791,792,793,794,0,0,0,465,466,0,0,0,0,0,0,0,0,0,0,0,0,0,0,0,0,0,783,784,0,0,0,0,461,462,0,
0,0,0,821,822,823,824,825,826,827,0,0,497,498,0,0,0,0,0,0,0,0,0,0,0,0,0,0,812,813,814,815,816,817,818,819,820,493,494,495,
0,0,0,853,854,855,856,857,858,859,0,0,529,530,0,0,0,0,0,0,0,0,0,0,0,0,0,0,844,845,846,847,848,849,850,851,852,525,526,0,
0,0,0,0,0,0,0,0,0,0,0,0,561,0,0,0,0,0,0,0,0,0,0,0,0,0,0,0,876,877,878,879,880,881,882,883,884,557,558,0,
0,0,0,0,0,0,0,0,0,0,0,0,0,0,0,0,0,0,0,0,0,0,0,0,0,0,0,0,0,0,0,0,0,0,0,0,0,0,590,0,
0,0,0,0,0,0,0,0,0,0,0,0,0,0,0,0,0,0,0,0,0,0,0,0,0,0,0,0,0,0,0,0,0,0,0,0,0,0,0,0,
0,0,0,0,0,0,0,0,0,0,0,0,0,0,0,0,0,0,0,0,0,0,0,0,0,0,0,0,0,0,0,0,0,0,0,0,0,0,0,0,
0,0,0,0,0,0,0,0,0,0,0,0,0,0,0,0,0,0,0,0,0,0,0,0,0,0,0,0,0,0,0,0,0,0,0,0,0,0,0,0,
0,0,0,0,0,0,0,0,0,0,0,0,0,0,0,0,0,0,0,0,0,0,0,0,0,0,0,0,0,0,0,0,0,0,0,0,0,0,0,0
  </data>
 </layer>
 <objectgroup id="9" name="Collision" visible="0">
  <object id="1" name="tree_thin" type="solid" x="588" y="120" width="8" height="6"/>
  <object id="2" name="tree_small" type="solid" x="179" y="168" width="8" height="6"/>
  <object id="3" name="tree_tall" type="solid" x="43" y="184" width="8" height="6"/>
  <object id="4" name="tree_crooked" type="solid" x="461" y="184" width="8" height="6"/>
  <object id="5" name="church" type="solid" x="254" y="150" width="150" height="48"/>
  <object id="6" name="house_a" type="solid" x="56" y="166" width="96" height="36"/>
  <object id="7" name="house_b" type="solid" x="504" y="166" width="96" height="36"/>
  <object id="8" name="fence_left" type="solid" x="112" y="200" width="16" height="7"/>
  <object id="9" name="fence_mid_a" type="solid" x="128" y="200" width="16" height="7"/>
  <object id="10" name="fence_mid_b" type="solid" x="144" y="200" width="16" height="7"/>
  <object id="11" name="fence_broken" type="solid" x="160" y="200" width="16" height="7"/>
  <object id="12" name="fence_right" type="solid" x="176" y="200" width="16" height="7"/>
  <object id="13" name="stump" type="solid" x="194" y="198" width="12" height="8"/>
  <object id="14" name="grave_0" type="solid" x="211" y="198" width="10" height="8"/>
  <object id="15" name="fence_post" type="solid" x="485" y="200" width="6" height="7"/>
  <object id="16" name="barrel_open" type="solid" x="513" y="198" width="14" height="9"/>
  <object id="17" name="grave_2" type="solid" x="227" y="214" width="10" height="8"/>
  <object id="18" name="fence_left" type="solid" x="560" y="216" width="16" height="7"/>
  <object id="19" name="fence_mid_c" type="solid" x="576" y="216" width="16" height="7"/>
  <object id="20" name="fence_mid_a" type="solid" x="592" y="216" width="16" height="7"/>
  <object id="21" name="fence_right" type="solid" x="608" y="216" width="16" height="7"/>
  <object id="22" name="barrel_broken" type="solid" x="528" y="214" width="15" height="9"/>
  <object id="23" name="signpost" type="solid" x="572" y="280" width="8" height="6"/>
  <object id="24" name="well" type="solid" x="182" y="280" width="36" height="20"/>
  <object id="25" name="statue" type="solid" x="390" y="298" width="36" height="20"/>
  <object id="26" name="tree_thin" type="solid" x="28" y="328" width="8" height="6"/>
  <object id="27" name="fence_post" type="solid" x="37" y="392" width="6" height="7"/>
  <object id="28" name="tree_small" type="solid" x="195" y="408" width="8" height="6"/>
  <object id="29" name="house_c" type="solid" x="60" y="396" width="94" height="30"/>
  <object id="30" name="fence_left" type="solid" x="160" y="424" width="16" height="7"/>
  <object id="31" name="fence_mid_b" type="solid" x="176" y="424" width="16" height="7"/>
  <object id="32" name="fence_broken" type="solid" x="192" y="424" width="16" height="7"/>
  <object id="33" name="fence_right" type="solid" x="208" y="424" width="16" height="7"/>
  <object id="34" name="tree_medium" type="solid" x="612" y="424" width="8" height="6"/>
  <object id="35" name="barrel_closed" type="solid" x="33" y="422" width="14" height="9"/>
  <object id="36" name="crate" type="solid" x="593" y="420" width="14" height="11"/>
  <object id="37" name="house_d" type="solid" x="456" y="406" width="126" height="36"/>
  <object id="38" name="fence_left" type="solid" x="384" y="440" width="16" height="7"/>
  <object id="39" name="fence_mid_a" type="solid" x="400" y="440" width="16" height="7"/>
  <object id="40" name="fence_right" type="solid" x="416" y="440" width="16" height="7"/>
  <object id="41" name="barrel_open" type="solid" x="433" y="438" width="14" height="9"/>
  <object id="42" name="void" type="void" x="0" y="0" width="32" height="16"/>
  <object id="43" name="void" type="void" x="608" y="0" width="32" height="16"/>
  <object id="44" name="void" type="void" x="0" y="16" width="32" height="16"/>
  <object id="45" name="void" type="void" x="608" y="16" width="32" height="16"/>
  <object id="46" name="void" type="void" x="0" y="32" width="32" height="16"/>
  <object id="47" name="void" type="void" x="608" y="32" width="32" height="16"/>
  <object id="48" name="void" type="void" x="0" y="48" width="32" height="16"/>
  <object id="49" name="void" type="void" x="608" y="48" width="32" height="16"/>
  <object id="50" name="void" type="void" x="0" y="64" width="32" height="16"/>
  <object id="51" name="void" type="void" x="608" y="64" width="32" height="16"/>
  <object id="52" name="void" type="void" x="0" y="80" width="32" height="16"/>
  <object id="53" name="void" type="void" x="608" y="80" width="32" height="16"/>
  <object id="54" name="void" type="void" x="0" y="96" width="32" height="16"/>
  <object id="55" name="void" type="void" x="608" y="96" width="32" height="16"/>
  <object id="56" name="void" type="void" x="0" y="112" width="32" height="16"/>
  <object id="57" name="void" type="void" x="608" y="112" width="32" height="16"/>
  <object id="58" name="void" type="void" x="0" y="128" width="32" height="16"/>
  <object id="59" name="void" type="void" x="608" y="128" width="32" height="16"/>
  <object id="60" name="void" type="void" x="0" y="144" width="32" height="16"/>
  <object id="61" name="void" type="void" x="608" y="144" width="32" height="16"/>
  <object id="62" name="void" type="void" x="0" y="160" width="32" height="16"/>
  <object id="63" name="void" type="void" x="608" y="160" width="32" height="16"/>
  <object id="64" name="void" type="void" x="0" y="176" width="32" height="16"/>
  <object id="65" name="void" type="void" x="608" y="176" width="32" height="16"/>
  <object id="66" name="void" type="void" x="0" y="192" width="32" height="16"/>
  <object id="67" name="void" type="void" x="608" y="192" width="32" height="16"/>
  <object id="68" name="void" type="void" x="0" y="208" width="32" height="16"/>
  <object id="69" name="void" type="void" x="608" y="208" width="32" height="16"/>
  <object id="70" name="void" type="void" x="0" y="224" width="32" height="16"/>
  <object id="71" name="void" type="void" x="608" y="224" width="32" height="16"/>
  <object id="72" name="void" type="void" x="0" y="240" width="32" height="16"/>
  <object id="73" name="void" type="void" x="608" y="240" width="32" height="16"/>
  <object id="74" name="void" type="void" x="0" y="256" width="32" height="16"/>
  <object id="75" name="void" type="void" x="608" y="256" width="32" height="16"/>
  <object id="76" name="void" type="void" x="0" y="272" width="48" height="16"/>
  <object id="77" name="void" type="void" x="592" y="272" width="48" height="16"/>
  <object id="78" name="void" type="void" x="0" y="288" width="48" height="16"/>
  <object id="79" name="void" type="void" x="576" y="288" width="64" height="16"/>
  <object id="80" name="void" type="void" x="0" y="304" width="48" height="16"/>
  <object id="81" name="void" type="void" x="576" y="304" width="64" height="16"/>
  <object id="82" name="void" type="void" x="0" y="320" width="32" height="16"/>
  <object id="83" name="void" type="void" x="592" y="320" width="48" height="16"/>
  <object id="84" name="void" type="void" x="0" y="336" width="32" height="16"/>
  <object id="85" name="void" type="void" x="608" y="336" width="32" height="16"/>
  <object id="86" name="void" type="void" x="0" y="352" width="32" height="16"/>
  <object id="87" name="void" type="void" x="608" y="352" width="32" height="16"/>
  <object id="88" name="void" type="void" x="0" y="368" width="32" height="16"/>
  <object id="89" name="void" type="void" x="608" y="368" width="32" height="16"/>
  <object id="90" name="void" type="void" x="0" y="384" width="32" height="16"/>
  <object id="91" name="void" type="void" x="624" y="384" width="16" height="16"/>
  <object id="92" name="void" type="void" x="0" y="400" width="32" height="16"/>
  <object id="93" name="void" type="void" x="624" y="400" width="16" height="16"/>
  <object id="94" name="void" type="void" x="0" y="416" width="32" height="16"/>
  <object id="95" name="void" type="void" x="624" y="416" width="16" height="16"/>
  <object id="96" name="void" type="void" x="0" y="432" width="48" height="16"/>
  <object id="97" name="void" type="void" x="608" y="432" width="32" height="16"/>
  <object id="98" name="void" type="void" x="0" y="448" width="256" height="16"/>
  <object id="99" name="void" type="void" x="416" y="448" width="224" height="16"/>
  <object id="100" name="void" type="void" x="0" y="464" width="272" height="16"/>
  <object id="101" name="void" type="void" x="384" y="464" width="256" height="16"/>
  <object id="102" name="forest" type="solid" x="0" y="0" width="640" height="162"/>
 </objectgroup>
 <objectgroup id="10" name="Markers">
  <object id="103" name="PlayerStart" type="spawn" x="320" y="420"><point/></object>
  <object id="104" name="ExitSouth" type="exit" x="272" y="472" width="112" height="8"/>
  <object id="105" name="ChapelDoor" type="door" x="317" y="150" width="22" height="46"/>
 </objectgroup>
</map>
